Papirus-Dark/22x22/actions/tool-spray.svg

<?xml version="1.0" encoding="UTF-8" standalone="no"?>
<svg xmlns="http://www.w3.org/2000/svg" width="22" height="22" viewBox="0 0 22 22">
 <defs>
  <style type="text/css" id="current-color-scheme">
   .ColorScheme-Text { color:#d3dae3; }
  </style>
 </defs>
 <path style="fill:currentColor;opacity:1" class="ColorScheme-Text" transform="translate(3 3)" d="M 8.8105469 1.0683594 A 2.000019 2.000019 0 0 0 6.8496094 2.7402344 A 2.000019 2.000019 0 0 0 8.4941406 5.0410156 A 2.000019 2.000019 0 0 0 10.794922 3.3945312 A 2.000019 2.000019 0 0 0 9.1503906 1.09375 A 2.000019 2.000019 0 0 0 8.8105469 1.0683594 z M 4.5859375 2.4140625 A 1.0000095 1.0000095 0 0 0 3.5859375 3.4140625 A 1.0000095 1.0000095 0 0 0 4.5859375 4.4140625 A 1.0000095 1.0000095 0 0 0 5.5859375 3.4140625 A 1.0000095 1.0000095 0 0 0 4.5859375 2.4140625 z M 12.904297 3.3867188 A 1.0000095 1.0000095 0 0 0 11.904297 4.3867188 A 1.0000095 1.0000095 0 0 0 12.904297 5.3867188 A 1.0000095 1.0000095 0 0 0 13.904297 4.3867188 A 1.0000095 1.0000095 0 0 0 12.904297 3.3867188 z M 3.0585938 5.1816406 A 2.000019 2.000019 0 0 0 1.0976562 6.8535156 A 2.000019 2.000019 0 0 0 2.7441406 9.1542969 A 2.000019 2.000019 0 0 0 5.0449219 7.5097656 A 2.000019 2.000019 0 0 0 3.3984375 5.2089844 A 2.000019 2.000019 0 0 0 3.0585938 5.1816406 z M 8.2441406 6.6074219 A 1.0000095 1.0000095 0 0 0 7.2441406 7.6074219 A 1.0000095 1.0000095 0 0 0 8.2441406 8.6074219 A 1.0000095 1.0000095 0 0 0 9.2441406 7.6074219 A 1.0000095 1.0000095 0 0 0 8.2441406 6.6074219 z M 12.923828 6.8183594 A 2.000019 2.000019 0 0 0 10.962891 8.4902344 A 2.000019 2.000019 0 0 0 12.607422 10.791016 A 2.000019 2.000019 0 0 0 14.910156 9.1464844 A 2.000019 2.000019 0 0 0 13.263672 6.8457031 A 2.000019 2.000019 0 0 0 12.923828 6.8183594 z M 2.9960938 10.400391 A 1.0000095 1.0000095 0 0 0 1.9960938 11.400391 A 1.0000095 1.0000095 0 0 0 2.9960938 12.400391 A 1.0000095 1.0000095 0 0 0 3.9960938 11.400391 A 1.0000095 1.0000095 0 0 0 2.9960938 10.400391 z M 7.171875 10.931641 A 2.000019 2.000019 0 0 0 5.2128906 12.605469 A 2.000019 2.000019 0 0 0 6.8574219 14.90625 A 2.000019 2.000019 0 0 0 9.1582031 13.259766 A 2.000019 2.000019 0 0 0 7.5136719 10.958984 A 2.000019 2.000019 0 0 0 7.171875 10.931641 z M 11.761719 12 A 1.0000095 1.0000095 0 0 0 10.761719 13 A 1.0000095 1.0000095 0 0 0 11.761719 14 A 1.0000095 1.0000095 0 0 0 12.761719 13 A 1.0000095 1.0000095 0 0 0 11.761719 12 z"/>
</svg>

<?xml version="1.0" encoding="UTF-8" standalone="no"?>
<!--Created with Inkscape (http://www.inkscape.org/)-->
<svg id="svg7384" xmlns:rdf="http://www.w3.org/1999/02/22-rdf-syntax-ns#" style="enable-background:new" xmlns="http://www.w3.org/2000/svg" height="22" width="22" version="1.1" xmlns:cc="http://creativecommons.org/ns#" xmlns:dc="http://purl.org/dc/elements/1.1/">
 <metadata id="metadata90">
  <rdf:RDF>
   <cc:Work rdf:about="">
    <dc:format>image/svg+xml</dc:format>
    <dc:type rdf:resource="http://purl.org/dc/dcmitype/StillImage"/>
   </cc:Work>
  </rdf:RDF>
 </metadata>
 <g id="layer12" transform="translate(-265 19.003)">
  <g id="g4172" opacity="1" fill="#d3dae3" transform="matrix(.98651 .16373 -.16373 .98651 4.8157 -41.779)">
   <g id="g4162">
    <path id="path4157" transform="matrix(.98651 -.16373 .16373 .98651 263.8 -17.586)" d="m8.8066 1.0684a2 2 0 0 0 -1.9609 1.6718 2 2 0 0 0 1.6445 2.3008 2 2 0 0 0 2.3008 -1.6465 2 2 0 0 0 -1.6445 -2.3007 2 2 0 0 0 -0.3399 -0.0254zm-4.2246 1.3457a1 1 0 0 0 -1 1 1 1 0 0 0 1 1 1 1 0 0 0 1 -1 1 1 0 0 0 -1 -1zm8.3203 0.97266a1 1 0 0 0 -1 1 1 1 0 0 0 1 1 1 1 0 0 0 1 -1 1 1 0 0 0 -1 -1zm-9.8473 1.7948a2 2 0 0 0 -1.9609 1.6719 2 2 0 0 0 1.6464 2.3008 2 2 0 0 0 2.3008 -1.6445 2 2 0 0 0 -1.6465 -2.3008 2 2 0 0 0 -0.3398 -0.0274zm5.1855 1.4258a1 1 0 0 0 -1 1 1 1 0 0 0 1 1 1 1 0 0 0 1 -1 1 1 0 0 0 -1 -1zm4.6798 0.211a2 2 0 0 0 -1.961 1.6718 2 2 0 0 0 1.646 2.3008 2 2 0 0 0 2.301 -1.6445 2 2 0 0 0 -1.646 -2.3008 2 2 0 0 0 -0.34 -0.0273zm-9.9278 3.5816a1 1 0 0 0 -1 1 1 1 0 0 0 1 1 1 1 0 0 0 1 -1 1 1 0 0 0 -1 -1zm4.1758 0.53125a2 2 0 0 0 -1.959 1.674 2 2 0 0 0 1.6445 2.301 2 2 0 0 0 2.3008 -1.646 2 2 0 0 0 -1.6445 -2.301 2 2 0 0 0 -0.3418 -0.027zm4.59 1.069a1 1 0 0 0 -1 1 1 1 0 0 0 1 1 1 1 0 0 0 1 -1 1 1 0 0 0 -1 -1z"/>
   </g>
  </g>
 </g>
</svg>
